!!!OTL: 510. Wanderlied.
!!!COM: J. W. Lyra
!!!ODT: 1843
!!!ARE: Europa, Mitteleuropa, Deutschland
!!!SCT: B0510
!!!TXL: @@DE
!!!YEM: Copyright 1995, estate of Helmut Schaffrath.
**kern	**text
*ICvox	*
*Ivox	*
*clefG2	*
*M6/8	*
*k[f#c#g#]	*
*A:	*
!LO:TX:a:t=Mäßig bewegt.	!
{8e	Durch
=1	=1
4e	Feld
8e	und
4cc#	Bu-
8b	-chen-
=2	=2
4.a	-hal-
4f#}	-len,
{8f#	bald
=3	=3
4e	ſingend
8g#	bald
4g#	fröh-
8b	-lich
=4	=4
[4.a	ſtill,
8a]	.
8r}	.
{8e	recht
=5	=5
4cc#	luf-
8cc#	-tig
8cc#L	ſei
8bJ	.
8ee	vor
=6	=6
4.ee	al-
4dd}	-len,
{8b	wer's
=7	=7
4a	Rei-
8a	-ſen
8bL	wäh-
8aJ	.
8b	-len
=8	=8
[4.cc#	will,
8cc#]	.
8r}	.
{8e	recht
=9	=9
4cc#	luſ-
8cc#	-tig
8cc#L	ſei
8ddJ	.
8ee	vor
=10	=10
4.ff#	al-
8eeL	-len,
8ddJ}	.
{8b	wer's
=11	=11
4a	Rei-
8a	-ſen
4cc#	wäh-
8b	-len
=12	=12
[4.a	will.
8a]	.
8r}	.
==	==
!!!AGN: Wander - Lied
!!!GTL: Wanderlieder
!!!ONB: ESAC (Essen Associative Code) Database: BOEHME
!!!AMT: compound duple
!!!AIN: vox
!!!EED: Helmut Schaffrath
!!!EEV: 1.0
!!@@COMMENT:"Gedicht von Joſ. v. Eichendorff 1836. Mel. von W. Lyra 1843 in Deutſche Lieder nebſt
!!ihren Singweiſen". Leipʒig 1843; dann in: "Deutſches Liederb. v. J. Schanʒ 1848, ſpäter ohne
!!Namen (als Volksweiſe) in Commersbüchern, Schuberts Concordia rc. Dem Texte hat Erk (Germania
!!Nr. 62) die Volksweiſe "Es wollt' ein Jäger jagen" angepaßt."
!!@@END:
!!!Text: J. von Eichendorff 
!!!URL-scan: https://archive.org/details/BoehmeVtLieder1895/page/n407/mode/2up
!!!ENC: Anna Maria Matuszewska
!!!EEV: 2024/11/07
*-	*-
